apps/scalable/spacefm-find.svg

<svg xmlns="http://www.w3.org/2000/svg" style="isolation:isolate" width="256" height="256"><defs><filter id="a" width="400%" height="400%" x="-200%" y="-200%" color-interpolation-filters="sRGB" filterUnits="objectBoundingBox"><feGaussianBlur xmlns="http://www.w3.org/2000/svg" in="SourceGraphic" stdDeviation="4.294"/><feOffset xmlns="http://www.w3.org/2000/svg" dy="4" result="pf_100_offsetBlur"/><feFlood xmlns="http://www.w3.org/2000/svg" flood-opacity=".4"/><feComposite xmlns="http://www.w3.org/2000/svg" in2="pf_100_offsetBlur" operator="in" result="pf_100_dropShadow"/><feBlend xmlns="http://www.w3.org/2000/svg" in="SourceGraphic" in2="pf_100_dropShadow"/></filter></defs><g filter="url(#a)"><linearGradient id="b" x1=".51" x2=".512" y1="1.06" y2=".158" gradientTransform="matrix(244.648 0 0 228.338 5.676 11.947)" gradientUnits="userSpaceOnUse"><stop offset="0%" stop-color="#f76363"/><stop offset="100%" stop-color="#e6548b"/></linearGradient><path fill="url(#b)" d="M165.685 11.947c74.055 0 84.639 10.557 84.639 84.544v59.251c0 73.986-10.584 84.543-84.639 84.543h-75.37c-74.055 0-84.639-10.557-84.639-84.543V96.491c0-73.987 10.584-84.544 84.639-84.544h75.37z"/></g><path fill="#F7F7F7" d="M183.349 12.212c58.127 2.009 66.975 16.629 66.975 84.279v59.251c0 73.986-10.584 84.543-84.639 84.543h-75.37c-61.096 0-78.991-7.185-83.383-51.245 4.973-6.112 176.887-173.772 176.417-176.828z" opacity=".1"/><g opacity=".4"><linearGradient id="c" x1=".517" x2=".517" y2="1"><stop offset="0%" stop-color="#fff"/><stop offset="12.5%" stop-opacity=".098" stop-color="#fff"/><stop offset="92.5%" stop-opacity=".098"/><stop offset="100%" stop-opacity=".498"/></linearGradient><path fill="none" stroke="url(#c)" stroke-linecap="round" stroke-linejoin="round" stroke-width="4.077" d="M165.685 11.947c74.055 0 84.639 10.557 84.639 84.544v59.251c0 73.986-10.584 84.543-84.639 84.543h-75.37c-74.055 0-84.639-10.557-84.639-84.543V96.491c0-73.987 10.584-84.544 84.639-84.544h75.37z" vector-effect="non-scaling-stroke"/></g><g filter="url(#d)"><path fill="#F4C8C8" d="M91.697 61.745c-11.35.13-19.655-.258-26.446 3.474-3.395 1.865-6.09 5.007-7.576 8.947-1.485 3.941-2.008 8.62-2.008 14.528v37.728H200v-23.356c0-5.907-.523-10.587-2.009-14.527-.184-.49-.432-.934-.669-1.386-.09-.166-.161-.342-.247-.509-1.558-3.043-3.838-5.52-6.66-7.07-6.791-3.731-15.096-3.326-26.446-3.457h-36.435l-14.627-14.372h-21.21z"/><clipPath id="e"><path fill="#FFF" d="M91.697 61.745c-11.35.13-19.655-.257-26.446 3.473-3.395 1.866-6.09 5.008-7.576 8.948-1.485 3.941-2.008 8.62-2.008 14.528v37.728H200v-23.356c0-5.907-.523-10.587-2.009-14.527-.184-.49-.432-.934-.669-1.386-.09-.166-.161-.342-.247-.509-1.558-3.043-3.838-5.52-6.66-7.07-6.791-3.731-15.096-3.326-26.445-3.457h-36.436l-14.627-14.372h-21.21z"/></clipPath><g clip-path="url(#e)"><defs><filter id="f" width="400%" height="400%" x="-200%" y="-200%" color-interpolation-filters="sRGB" filterUnits="objectBoundingBox"><feGaussianBlur xmlns="http://www.w3.org/2000/svg" stdDeviation="1.44"/></filter></defs><path d="M163.97 76.117c11.349.13 19.654-.257 26.445 3.474 3.396 1.866 6.091 5.008 7.576 8.948 1.486 3.94 2.009 8.62 2.009 14.527v61.085c0 5.907-.523 10.587-2.009 14.527-1.485 3.94-4.18 7.1-7.576 8.965-6.791 3.731-15.096 3.326-26.445 3.457H91.695c-11.35-.131-19.655.274-26.446-3.457-3.396-1.865-6.091-5.025-7.576-8.965-1.483-3.94-2.006-8.62-2.006-14.527v-46.712c0-5.907.523-10.587 2.008-14.527.185-.49.432-.934.67-1.386.09-.166.16-.342.246-.509 1.558-3.043 3.838-5.52 6.66-7.071 6.791-3.731 15.096-3.325 26.446-3.456H113.7l14.627-14.373h35.643z" opacity=".2" filter="url(#f)"/></g><path fill="#FFEBEB" fill-opacity=".996" d="M163.97 76.117c11.349.13 19.654-.257 26.445 3.474 3.396 1.866 6.091 5.008 7.576 8.948 1.486 3.94 2.009 8.62 2.009 14.527v61.084c0 5.908-.523 10.588-2.009 14.528-1.485 3.94-4.18 7.1-7.576 8.965-6.791 3.731-15.096 3.326-26.445 3.457H91.695c-11.35-.131-19.655.274-26.446-3.457-3.396-1.865-6.091-5.025-7.576-8.965-1.483-3.94-2.006-8.62-2.006-14.528V117.439c0-5.907.523-10.587 2.008-14.527.185-.49.432-.934.67-1.386.09-.166.16-.342.246-.509 1.558-3.043 3.838-5.52 6.66-7.071 6.791-3.731 15.096-3.325 26.446-3.456H113.699l14.627-14.373h35.644z"/><path fill="#FFF" d="M91.697 61.745c-11.35.13-19.655-.258-26.446 3.474-3.395 1.865-6.09 5.007-7.576 8.947-1.485 3.941-2.008 8.62-2.008 14.528v1.796c0-5.907.523-10.587 2.008-14.527 1.486-3.94 4.181-7.082 7.576-8.948 6.791-3.731 15.096-3.344 26.446-3.474h21.209l14.109 13.864 1.311-1.288h-.793l-14.627-14.372H91.697z" opacity=".4"/><path fill="#FFF" d="M128.327 76.117L113.7 90.49H91.697c-11.35.131-19.654-.275-26.446 3.457-2.821 1.55-5.102 4.027-6.659 7.07-.086.167-.157.343-.247.509-.238.452-.485.896-.67 1.386-1.485 3.94-2.008 8.62-2.008 14.527v1.797c0-5.907.523-10.587 2.008-14.527.185-.49.432-.935.67-1.386.09-.166.161-.342.247-.509 1.557-3.043 3.838-5.521 6.659-7.071 6.792-3.731 15.096-3.326 26.446-3.456H113.7l14.627-14.373h35.642c11.35.13 19.655-.257 26.446 3.474 3.395 1.865 6.091 5.008 7.576 8.948 1.485 3.94 2.008 8.62 2.008 14.527v-1.797c0-5.907-.523-10.587-2.008-14.527-1.485-3.94-4.181-7.082-7.576-8.948-6.791-3.731-15.096-3.343-26.446-3.474h-35.642z"/></g><defs><filter id="d" width="400%" height="400%" x="-200%" y="-200%" color-interpolation-filters="sRGB" filterUnits="objectBoundingBox"><feGaussianBlur xmlns="http://www.w3.org/2000/svg" in="SourceGraphic" stdDeviation="4.294"/><feOffset xmlns="http://www.w3.org/2000/svg" dy="4" result="pf_100_offsetBlur"/><feFlood xmlns="http://www.w3.org/2000/svg" flood-opacity=".4"/><feComposite xmlns="http://www.w3.org/2000/svg" in2="pf_100_offsetBlur" operator="in" result="pf_100_dropShadow"/><feBlend xmlns="http://www.w3.org/2000/svg" in="SourceGraphic" in2="pf_100_dropShadow"/></filter></defs><path d="M152.605 110.683c22.64 0 41.053 18.413 41.053 41.052 0 9.872-3.502 18.939-9.328 26.027l3.913 3.913.967-.968 21.553 21.553-7.741 7.74-21.553-21.552.968-.968-3.926-3.925c-7.07 5.767-16.089 9.233-25.906 9.233-22.639 0-41.052-18.413-41.052-41.053 0-22.639 18.413-41.052 41.052-41.052zm0 5.566c-19.631 0-35.486 15.855-35.486 35.486 0 19.632 15.855 35.487 35.486 35.487 19.632 0 35.487-15.855 35.487-35.487 0-19.631-15.855-35.486-35.487-35.486z" opacity=".1"/><g opacity=".3"><linearGradient id="g" x1="-.082" x2=".966" y1=".985" y2=".985" gradientTransform="matrix(99.21 0 0 99.317 111.553 110.683)" gradientUnits="userSpaceOnUse"><stop offset="0%" stop-opacity="0"/><stop offset="47.697%"/><stop offset="100%" stop-opacity="0"/></linearGradient><path fill="url(#g)" d="M152.605 110.683c22.64 0 41.053 18.413 41.053 41.052 0 9.872-3.502 18.939-9.328 26.027l3.913 3.913.967-.968 21.553 21.553-7.741 7.74-21.553-21.552.968-.968-3.926-3.925c-7.07 5.767-16.089 9.233-25.906 9.233-22.639 0-41.052-18.413-41.052-41.053 0-22.639 18.413-41.052 41.052-41.052zm0 5.566c-19.631 0-35.486 15.855-35.486 35.486 0 19.632 15.855 35.487 35.486 35.487 19.632 0 35.487-15.855 35.487-35.487 0-19.631-15.855-35.486-35.487-35.486z"/></g><path fill="#DB6A70" d="M176.966 181.325l5.806-5.806 8.208 8.209-5.805 5.806-8.209-8.209z"/><path fill="#A24A4F" d="M181.469 187.762l7.739-7.74 21.553 21.553-7.739 7.739-21.553-21.552z"/><circle fill="#DAF0F9" fill-opacity=".543" cx="152.605" cy="151.051" r="38.27" vector-effect="non-scaling-stroke"/><path fill="#F49CA4" fill-rule="evenodd" d="M152.607 192.102a40.929 40.929 0 0 1-15.975-3.228 41.058 41.058 0 0 1-13.048-8.8 41.214 41.214 0 0 1-8.8-13.048 40.929 40.929 0 0 1-3.228-15.975 40.958 40.958 0 0 1 3.228-15.975 41.214 41.214 0 0 1 8.8-13.048 41.055 41.055 0 0 1 13.048-8.799A40.912 40.912 0 0 1 152.607 110a40.941 40.941 0 0 1 15.975 3.229 41.21 41.21 0 0 1 21.847 21.847 40.92 40.92 0 0 1 3.229 15.975 40.912 40.912 0 0 1-3.229 15.975 41.21 41.21 0 0 1-21.847 21.848 40.958 40.958 0 0 1-15.975 3.228zm0-5.564h-.007c-4.739 0-9.43-.946-13.8-2.792a35.608 35.608 0 0 1-11.283-7.605 35.725 35.725 0 0 1-7.611-11.283 35.439 35.439 0 0 1-2.786-13.807 35.34 35.34 0 0 1 2.792-13.807 35.588 35.588 0 0 1 18.888-18.887 35.464 35.464 0 0 1 13.807-2.793c4.739 0 9.437.947 13.807 2.793a35.558 35.558 0 0 1 11.276 7.604 35.504 35.504 0 0 1 7.611 11.283 35.49 35.49 0 0 1 2.793 13.807c0 4.746-.947 9.437-2.793 13.807a35.493 35.493 0 0 1-7.611 11.283 35.577 35.577 0 0 1-11.276 7.605 35.466 35.466 0 0 1-13.807 2.792z"/><circle fill="#FFF" fill-opacity=".543" cx="141.658" cy="140.104" r="13.684" vector-effect="non-scaling-stroke"/></svg>

<svg xmlns="http://www.w3.org/2000/svg" style="isolation:isolate" width="256" height="256" viewBox="0 0 256 256">
 <defs>
  <filter id="VuxhPM3ryA9XLZmst2B0wrQZZ4l6e8Ka" width="400%" height="400%" x="-200%" y="-200%" color-interpolation-filters="sRGB" filterUnits="objectBoundingBox">
   <feGaussianBlur xmlns="http://www.w3.org/2000/svg" in="SourceGraphic" stdDeviation="4.294"/>
   <feOffset xmlns="http://www.w3.org/2000/svg" dx="0" dy="4" result="pf_100_offsetBlur"/>
   <feFlood xmlns="http://www.w3.org/2000/svg" flood-opacity=".4"/>
   <feComposite xmlns="http://www.w3.org/2000/svg" in2="pf_100_offsetBlur" operator="in" result="pf_100_dropShadow"/>
   <feBlend xmlns="http://www.w3.org/2000/svg" in="SourceGraphic" in2="pf_100_dropShadow" mode="normal"/>
  </filter>
 </defs>
 <g filter="url(#VuxhPM3ryA9XLZmst2B0wrQZZ4l6e8Ka)">
  <linearGradient id="_lgradient_3" x1=".51" x2=".512" y1="1.06" y2=".158" gradientTransform="matrix(244.648,0,0,228.338,5.676,11.947)" gradientUnits="userSpaceOnUse">
   <stop offset="0%" style="stop-color:rgb(247,99,99)"/>
   <stop offset="100%" style="stop-color:rgb(230,84,139)"/>
  </linearGradient>
  <path fill="url(#_lgradient_3)" d="M 165.685 11.947 C 239.74 11.947 250.324 22.504 250.324 96.491 L 250.324 155.742 C 250.324 229.728 239.74 240.285 165.685 240.285 L 90.315 240.285 C 16.26 240.285 5.676 229.728 5.676 155.742 L 5.676 96.491 C 5.676 22.504 16.26 11.947 90.315 11.947 L 165.685 11.947 Z"/>
 </g>
 <g opacity=".1">
  <path fill="#F7F7F7" d="M 183.349 12.212 C 241.476 14.221 250.324 28.841 250.324 96.491 L 250.324 155.742 C 250.324 229.728 239.74 240.285 165.685 240.285 L 90.315 240.285 C 29.219 240.285 11.324 233.1 6.932 189.04 C 11.905 182.928 183.819 15.268 183.349 12.212 Z"/>
 </g>
 <g opacity=".4">
  <linearGradient id="_lgradient_4" x1=".517" x2=".517" y1="0" y2="1">
   <stop offset="0%" style="stop-color:rgb(255,255,255)"/>
   <stop offset="12.5%" stop-opacity=".098" style="stop-color:rgb(255,255,255)"/>
   <stop offset="92.5%" stop-opacity=".098" style="stop-color:rgb(0,0,0)"/>
   <stop offset="100%" stop-opacity=".498" style="stop-color:rgb(0,0,0)"/>
  </linearGradient>
  <path fill="none" stroke="url(#_lgradient_4)" stroke-linecap="round" stroke-linejoin="round" stroke-width="4.077" d="M 165.685 11.947 C 239.74 11.947 250.324 22.504 250.324 96.491 L 250.324 155.742 C 250.324 229.728 239.74 240.285 165.685 240.285 L 90.315 240.285 C 16.26 240.285 5.676 229.728 5.676 155.742 L 5.676 96.491 C 5.676 22.504 16.26 11.947 90.315 11.947 L 165.685 11.947 Z" vector-effect="non-scaling-stroke"/>
 </g>
 <g filter="url(#Wn8R7zqleuIvoNmwe05bSwhOiKrxe1qt)">
  <path fill="#F4C8C8" d="M 91.697 61.745 C 80.347 61.875 72.042 61.487 65.251 65.219 C 61.856 67.084 59.161 70.226 57.675 74.166 C 56.19 78.107 55.667 82.786 55.667 88.694 L 55.667 126.422 L 200 126.422 L 200 103.066 C 200 97.159 199.477 92.479 197.991 88.539 C 197.807 88.049 197.559 87.605 197.322 87.153 C 197.232 86.987 197.161 86.811 197.075 86.644 C 195.517 83.601 193.237 81.124 190.415 79.574 C 183.624 75.843 175.319 76.248 163.969 76.117 L 163.917 76.117 L 127.534 76.117 L 112.907 61.745 L 91.715 61.745 L 91.697 61.745 Z"/>
  <clipPath id="_clipPath_mKdscrHHHptffA3MMCNqk5oiBaD2DTvt">
   <path fill="#FFFFFF" d="M 91.697 61.745 C 80.347 61.875 72.042 61.488 65.251 65.218 C 61.856 67.084 59.161 70.226 57.675 74.166 C 56.19 78.107 55.667 82.786 55.667 88.694 L 55.667 126.422 L 200 126.422 L 200 103.066 C 200 97.159 199.477 92.479 197.991 88.539 C 197.807 88.049 197.559 87.605 197.322 87.153 C 197.232 86.987 197.161 86.811 197.075 86.644 C 195.517 83.601 193.237 81.124 190.415 79.574 C 183.624 75.843 175.319 76.248 163.97 76.117 L 163.917 76.117 L 127.534 76.117 L 112.907 61.745 L 91.715 61.745 L 91.697 61.745 Z"/>
  </clipPath>
  <g clip-path="url(#_clipPath_mKdscrHHHptffA3MMCNqk5oiBaD2DTvt)">
   <defs>
    <filter id="X4JDl9gOPc0KdocqsfCg5FPDpkGzDzqX" width="400%" height="400%" x="-200%" y="-200%" color-interpolation-filters="sRGB" filterUnits="objectBoundingBox">
     <feGaussianBlur xmlns="http://www.w3.org/2000/svg" stdDeviation="1.44"/>
    </filter>
   </defs>
   <g opacity=".2" filter="url(#X4JDl9gOPc0KdocqsfCg5FPDpkGzDzqX)">
    <path d="M 163.97 76.117 C 175.319 76.247 183.624 75.86 190.415 79.591 C 193.811 81.457 196.506 84.599 197.991 88.539 C 199.477 92.479 200 97.159 200 103.066 L 200 164.151 C 200 170.058 199.477 174.738 197.991 178.678 C 196.506 182.618 193.811 185.778 190.415 187.643 C 183.624 191.374 175.319 190.969 163.97 191.1 L 163.915 191.1 L 91.749 191.1 L 91.695 191.1 C 80.345 190.969 72.04 191.374 65.249 187.643 C 61.853 185.778 59.158 182.618 57.673 178.678 C 56.19 174.738 55.667 170.058 55.667 164.151 L 55.667 158.761 L 55.667 117.439 C 55.667 111.532 56.19 106.852 57.675 102.912 C 57.86 102.422 58.107 101.978 58.345 101.526 C 58.435 101.36 58.505 101.184 58.591 101.017 C 60.149 97.974 62.429 95.497 65.251 93.946 C 72.042 90.215 80.347 90.621 91.697 90.49 L 91.75 90.49 L 113.7 90.49 L 128.327 76.117 L 163.952 76.117 L 163.97 76.117 Z"/>
   </g>
  </g>
  <path fill="#FFEBEB" fill-opacity=".996" d="M 163.97 76.117 C 175.319 76.247 183.624 75.86 190.415 79.591 C 193.811 81.457 196.506 84.599 197.991 88.539 C 199.477 92.479 200 97.159 200 103.066 L 200 164.15 C 200 170.058 199.477 174.738 197.991 178.678 C 196.506 182.618 193.811 185.778 190.415 187.643 C 183.624 191.374 175.319 190.969 163.97 191.1 L 163.915 191.1 L 91.749 191.1 L 91.695 191.1 C 80.345 190.969 72.04 191.374 65.249 187.643 C 61.853 185.778 59.158 182.618 57.673 178.678 C 56.19 174.738 55.667 170.058 55.667 164.15 L 55.667 158.761 L 55.667 117.439 C 55.667 111.532 56.19 106.852 57.675 102.912 C 57.86 102.422 58.107 101.978 58.345 101.526 C 58.435 101.36 58.505 101.184 58.591 101.017 C 60.149 97.974 62.429 95.497 65.251 93.946 C 72.042 90.215 80.347 90.621 91.697 90.49 L 91.75 90.49 L 113.699 90.49 L 128.326 76.117 L 163.952 76.117 L 163.97 76.117 Z"/>
  <g opacity=".4">
   <path fill="#FFFFFF" d="M 91.697 61.745 C 80.347 61.875 72.042 61.487 65.251 65.219 C 61.856 67.084 59.161 70.226 57.675 74.166 C 56.19 78.107 55.667 82.786 55.667 88.694 L 55.667 90.49 C 55.667 84.583 56.19 79.903 57.675 75.963 C 59.161 72.023 61.856 68.881 65.251 67.015 C 72.042 63.284 80.347 63.671 91.697 63.541 L 91.714 63.541 L 112.906 63.541 L 127.015 77.405 L 128.326 76.117 L 127.533 76.117 L 112.906 61.745 L 91.714 61.745 L 91.697 61.745 Z"/>
  </g>
  <path fill="#FFFFFF" d="M 128.327 76.117 L 113.7 90.49 L 91.75 90.49 L 91.697 90.49 C 80.347 90.621 72.043 90.215 65.251 93.947 C 62.43 95.497 60.149 97.974 58.592 101.017 C 58.506 101.184 58.435 101.36 58.345 101.526 C 58.107 101.978 57.86 102.422 57.675 102.912 C 56.19 106.852 55.667 111.532 55.667 117.439 L 55.667 119.236 C 55.667 113.329 56.19 108.649 57.675 104.709 C 57.86 104.219 58.107 103.774 58.345 103.323 C 58.435 103.157 58.506 102.981 58.592 102.814 C 60.149 99.771 62.43 97.293 65.251 95.743 C 72.043 92.012 80.347 92.417 91.697 92.287 L 91.75 92.287 L 113.7 92.287 L 128.327 77.914 L 163.952 77.914 L 163.969 77.914 C 175.319 78.044 183.624 77.657 190.415 81.388 C 193.81 83.253 196.506 86.396 197.991 90.336 C 199.476 94.276 199.999 98.956 199.999 104.863 L 199.999 103.066 C 199.999 97.159 199.476 92.479 197.991 88.539 C 196.506 84.599 193.81 81.457 190.415 79.591 C 183.624 75.86 175.319 76.248 163.969 76.117 L 163.952 76.117 L 128.327 76.117 Z"/>
 </g>
 <defs>
  <filter id="Wn8R7zqleuIvoNmwe05bSwhOiKrxe1qt" width="400%" height="400%" x="-200%" y="-200%" color-interpolation-filters="sRGB" filterUnits="objectBoundingBox">
   <feGaussianBlur xmlns="http://www.w3.org/2000/svg" in="SourceGraphic" stdDeviation="4.294"/>
   <feOffset xmlns="http://www.w3.org/2000/svg" dx="0" dy="4" result="pf_100_offsetBlur"/>
   <feFlood xmlns="http://www.w3.org/2000/svg" flood-opacity=".4"/>
   <feComposite xmlns="http://www.w3.org/2000/svg" in2="pf_100_offsetBlur" operator="in" result="pf_100_dropShadow"/>
   <feBlend xmlns="http://www.w3.org/2000/svg" in="SourceGraphic" in2="pf_100_dropShadow" mode="normal"/>
  </filter>
 </defs>
 <g>
  <g opacity=".1">
   <path d="M 152.605 110.683 C 175.245 110.683 193.658 129.096 193.658 151.735 C 193.658 161.607 190.156 170.674 184.33 177.762 L 188.243 181.675 L 189.21 180.707 L 210.763 202.26 L 203.022 210 L 181.469 188.448 L 182.437 187.48 L 178.511 183.555 C 171.441 189.322 162.422 192.788 152.605 192.788 C 129.966 192.788 111.553 174.375 111.553 151.735 C 111.553 129.096 129.966 110.683 152.605 110.683 Z M 152.605 116.249 C 132.974 116.249 117.119 132.104 117.119 151.735 C 117.119 171.367 132.974 187.222 152.605 187.222 C 172.237 187.222 188.092 171.367 188.092 151.735 C 188.092 132.104 172.237 116.249 152.605 116.249 Z"/>
  </g>
  <g opacity=".3">
   <linearGradient id="_lgradient_5" x1="-.082" x2=".966" y1=".985" y2=".985" gradientTransform="matrix(99.21,0,0,99.317,111.553,110.683)" gradientUnits="userSpaceOnUse">
    <stop offset="0%" stop-opacity="0" style="stop-color:rgb(0,0,0)"/>
    <stop offset="47.697%" style="stop-color:rgb(0,0,0)"/>
    <stop offset="100%" stop-opacity="0" style="stop-color:rgb(0,0,0)"/>
   </linearGradient>
   <path fill="url(#_lgradient_5)" d="M 152.605 110.683 C 175.245 110.683 193.658 129.096 193.658 151.735 C 193.658 161.607 190.156 170.674 184.33 177.762 L 188.243 181.675 L 189.21 180.707 L 210.763 202.26 L 203.022 210 L 181.469 188.448 L 182.437 187.48 L 178.511 183.555 C 171.441 189.322 162.422 192.788 152.605 192.788 C 129.966 192.788 111.553 174.375 111.553 151.735 C 111.553 129.096 129.966 110.683 152.605 110.683 Z M 152.605 116.249 C 132.974 116.249 117.119 132.104 117.119 151.735 C 117.119 171.367 132.974 187.222 152.605 187.222 C 172.237 187.222 188.092 171.367 188.092 151.735 C 188.092 132.104 172.237 116.249 152.605 116.249 Z"/>
  </g>
  <path fill="#DB6A70" d="M 176.966 181.325 L 182.772 175.519 L 190.98 183.728 L 185.175 189.534 L 176.966 181.325 Z"/>
  <path fill="#A24A4F" d="M 181.469 187.762 L 189.208 180.022 L 210.761 201.575 L 203.022 209.314 L 181.469 187.762 Z"/>
  <circle fill="#DAF0F9" fill-opacity=".543" cx="152.605" cy="151.051" r="38.27" vector-effect="non-scaling-stroke"/>
  <path fill="#F49CA4" fill-rule="evenodd" d="M 152.607 192.102 C 147.116 192.109 141.686 191.008 136.632 188.874 C 131.752 186.806 127.322 183.82 123.584 180.074 C 119.838 176.329 116.852 171.899 114.784 167.026 C 112.65 161.972 111.549 156.542 111.556 151.051 C 111.549 145.567 112.65 140.131 114.784 135.076 C 116.852 130.203 119.838 125.773 123.584 122.028 C 127.322 118.283 131.752 115.296 136.632 113.229 C 141.686 111.094 147.116 109.993 152.607 110 C 158.091 109.993 163.527 111.094 168.582 113.229 C 173.455 115.296 177.885 118.283 181.63 122.028 C 185.375 125.773 188.362 130.203 190.429 135.076 C 192.564 140.131 193.665 145.561 193.658 151.051 C 193.665 156.542 192.564 161.972 190.429 167.026 C 188.362 171.899 185.375 176.329 181.63 180.074 C 177.885 183.82 173.455 186.806 168.582 188.874 C 163.527 191.008 158.091 192.109 152.607 192.102 Z M 152.607 186.538 L 152.6 186.538 C 147.861 186.538 143.17 185.592 138.8 183.746 C 134.585 181.96 130.752 179.376 127.517 176.141 C 124.282 172.906 121.698 169.073 119.906 164.858 C 118.066 160.488 117.113 155.797 117.12 151.051 C 117.113 146.306 118.066 141.614 119.912 137.244 C 121.698 133.029 124.282 129.197 127.517 125.961 C 130.752 122.726 134.585 120.142 138.8 118.357 C 143.17 116.511 147.861 115.564 152.607 115.564 C 157.346 115.564 162.044 116.511 166.414 118.357 C 170.629 120.142 174.455 122.726 177.69 125.961 C 180.932 129.197 183.516 133.029 185.301 137.244 C 187.147 141.614 188.094 146.312 188.094 151.051 C 188.094 155.797 187.147 160.488 185.301 164.858 C 183.516 169.073 180.932 172.906 177.69 176.141 C 174.455 179.376 170.629 181.96 166.414 183.746 C 162.044 185.592 157.352 186.538 152.607 186.538 C 152.607 186.538 152.607 186.538 152.607 186.538 L 152.607 186.538 Z"/>
  <circle fill="#FFFFFF" fill-opacity=".543" cx="141.658" cy="140.104" r="13.684" vector-effect="non-scaling-stroke"/>
 </g>
</svg>
